X:1
T:Magpie
C:Alan Jabbour, N.C.
L:1/8
M:4/4
I:linebreak $
K:G
V:1 treble
V:1
 Bc |:"G" d2 g2 edBA | G2 BG DGBG | "D"DFAF AcBA |"G" GABc d2 Bc | d2 gf edBA |$
 G2 BG DGBG | "D"DFAF AcBA |"G"  G3 F G2 Bc :: "G"[Dd]4 [dg]4 | [Dd]3 [Dd] d2 AB |"C" c2 cB cd e2 |$
 "D"[Dd]3 [D^c] [Dd]2 ff |"G" gfga b2 a2 |  [DBg]3 f g2 AB |"C" cBcB "D"AF D2 |1"G" G3 F G2 Bc :|2"G" G3 G A2 z2 :|
